X:1
T:Vaga luna che inargenti
T:Vaga luna che inargenti
T:Vincenzo Bellini
T:by IMSLP - Public Domain
T:by IMSLP - Public Domain
T:by IMSLP - Public Domain
T:by IMSLP - Public Domain
C:Vincenzo Bellini
Z:by IMSLP - Public Domain
%%score 1 { ( 2 4 ) | ( 3 5 ) }
L:1/8
Q:1/4=90
M:4/4
K:Bb
V:1 treble nm="Voice"
V:2 treble nm="Piano"
V:4 treble 
V:3 bass 
V:5 bass 
V:1
"^Andante sostenuto" z2 | z8 | z8 | z8 | z4 z2 ||!p! B c | d2 (ed) (cB) (AG) | (F3 D) .F2!mf! B>A | %8
w: |||||Va\- ga|lu- * na che in\- ar- *|gen- * ti Que\- ste|
 (G2 A) B!f! d3 c | (c3!>(! A) .F2!>)!!p! B c | d d e d c B A G |!>(! (F3 D)!>)! .F2!mf! B A | %12
w: ri- ve e que\- sti|fio- * ri Ed in\-|spi\- ri, ed in\- spi\- riagli  e\- le\-|men- * ti iI lin\-|
 G"_molto cresc." A B c !fermata!d c G A | B4 z2!mf! A B | c2!<(! c2 (e2 d)!<)! c | %15
w: guag\- gio, Il lin\- guag\- gio del\- l'a|mor! Te\- sti\-|mo\- nio~or se\- i tu|
!>(! B4 A2!>)! B!f! c | _d3 d d2 (cB) |!>(! (c4 F2)!>)!!p! B c | d2"_cresc." e d c B A G | %19
w: so\- la del mio|fer\- vi\- do de- *|sir, * ed a|lei, ed a lei che m'in\- na\-|
!>(! (F3 D)!>)!!mf! F2 BA |!<(! G!<)! A B c d c"^ritard."!>(! G A!>)! | %21
w: mo- * ra conta i|pal\- pi\- ti, i pal\- piti e~i so\-|
 B"_molto cresc." c2 d d d e d | d c !>!d c !>!c"^ritardando"!>(! B !>!B A!>)! | %23
w: spir! Ed a lei che m'in\- na\-|mo\- ra con ta~i pal\- piti e~i so|
 B c2!<(! d d f!<)!!f! e d |"^con abbandono" d c !>!d c !>!c B!>(! B A!>)! | %25
w: spir, ed a lei che m'in\- na\-|mo\- ra con\- ta~i pal\- piti e~i so\-|
 B2!f!"^ritar-                                 dan-                       do               molto" (f4 e2) | %26
w: spir, e~i so\-|
 d2!p! (d4!>(! c2)!>)! | B6 |!p! B c | d2 (ed) (cB) (AG) | (F3 D) .F2!mf! B A | (G2 A) B!f! d3 c | %32
w: spir, e~i so\-|spir!|Dil\- le|pur che * lon- * ta- *|nan- * za il mio|duol non * può le\-|
 c2- c/!>(!(e/4d/4 c/4B/4A/4G/4 F2)!>)!!p! B c | d d e d c B A G |!>(! (F3 D)!>)! F2!mf! B A | %35
w: ni- * * * * * * * re, che se|nu\- tro, che se nu\- tro una spe\-|ran * za, el\- laè|
 G A B c !fermata!d c G (A/{BA}G/4A/4) | B4 z2 A B | c2 c2 (e2{fe} d) c | B2- (B/A/c/B/) .A2 B c | %39
w: sol, si el\- laè sol nell' av\- ve\- * *|nir! Dil\- le|pur che gior- * noe|se- * * * * ra con\- to|
 _d3 d (d2{ed} c) B |!f! (c4 F2)!pp! (G/A/) (B/c/) | d d"_cresc." e d c B A G | %42
w: l'o\- re del _ do\-|lor, _ cheu\- * na *|spe\- me u\- na spe\- me lu\- sin\--|
!>(! (F3 D)!>)! F2!f! B A |!<(! G A!<)! B c d c"^ritard."!>(! (G/B/) (A/c/)!>)! | %44
w: ghie- * ra mi con\-|for\- ta mi con\- for\- ta nell' * a\- *|
 B2"_molto cresc." B d d d{df} e d | d c !>!d c !>!c!>(! B !>!B A!>)! | %46
w: mor! Cheu\- na spe\- me lu\- sin\-|ghie\- ra, mi con\- for\- ta nell' a\-|
 B2 c d d f (3(f/e/d/) (3(d/c/=B/) | %47
w: mor, cheu\- na spe\- me lu- * * sin- * *|
"^con abbandono" !>!=B c d c c _B (A/4B/4c/4d/4(!fermata!e/) A/) | %48
w: ghie\- ra mi con for\- ta nell' _ _ _ _ a\-|
 B2!f! (f4"^ritardando molro" (3e)Fe | d2!p!!>(! d4 (3cFd!>)! | B6 |] %51
w: mor, nell' a- * *|mor, nel a- * *|mor!|
V:2
!p! ([DB][Fc] |!<(! d2 [Ge][Fd]!<)! [Ec][GB]!>(![FA][EG]) | ([DF]3 D)!>)! F2 (B2- | %3
!f! [GBg]2 =f/e/d/c/ B2 A2) |!>(! (([EF-c]4 [DFB]2))!>)! ||!p! (DF | BAGF EGFE) | %7
 (DBFd [DB]2) (BA |!<(! G2 AB!<)! d3 c) | [EFc]3 [FA] [EF]2 (Bc | d2 [Ge][Fd] [Ec][GB][FA][EG]) | %11
!>(! ([DF]BFd [DB]2)!>)! (BA | [EG]2) z2 !fermata![EF]2 z2 | (BfBc d2) z2 | %14
 z [FAc][FAc][FAc] z [EAc][EAc][EAc] | z [EBc][EBc][EBc] [EAc]2 z2 | %16
 z [GB_d][GBd][GBd] [_DGB]2 z2 | ([FA]C[ce][Bd] [Bd]F) (Bd | d2 [Ge][Fd] [Ec][GB][FA][EG]) | %19
 [DF]BFd [DB]2 (BA | [EG]2) z2 [EF]2 z2 | ([DB]F[DB][Ec] [Fd])([Fd][Ge][Fd]) | %22
 ([Fd][Ec]) z [EGc] z [EGc] z [EFA] | (B!<(!F) ([DB][Ec]!<)! [Fd]!f![_Af][Ge][Fd]) | %24
!>(! ([Fd][Ec])!>)! z [EGc] z [EGc] z [EFA] | (BF) d2 d2 c2 | (B F2) [DF]2 [DF] E2 | %27
 (DFBc !fermata![Dd]2) |!p! (DF | BAGF EGFE) | (DBFd [DB]2) (BA |!<(! G2 AB!<)! d3 c) | %32
 [EFc]3 [FA] [EF]2 (Bc | d2 [Ge][Fd] [Ec][GB][FA][EG]) |!>(! ([DF]BFd [DB]2)!>)! (BA | %35
 [EG]2) z2 !fermata![EF]2 z2 | (BfBc d2) z2 | z [FAc][FAc][FAc] z [EAc][EAc][EAc] | %38
 z [EBc][EBc][EBc] [EAc]2 z2 | z [GB_d][GBd][GBd] [_DGB]2 z2 | ([FA]C[ce][Bd] [Bd]F) (Bd | %41
 d2 [Ge][Fd] [Ec][GB][FA][EG]) | [DF]BFd [DB]2 (BA | [EG]2) z2 [EF]2 z2 | %44
 ([DB]F[DB][Ec] [Fd])([Fd][Ge][Fd]) | ([Fd][Ec]) z [EGc] z [EGc] z [EFA] | %46
 (B!<(!F) ([DB][Ec]!<)! [Fd]!f![_Af][Ge][Fd]) |!>(! ([Fd][Ec])!>)! z [EGc] z [EGc] z [EFA] | %48
 (BF) d2 d2 c2 | (B F2) [DF]2 [DF] E2 | (DFBc !fermata![Dd]2) |] %51
V:3
 z2 | B,8 | B,G,F,B,- B,2 B,2- | (B,2 =B,/C/F/E/ D2 C2) | (A,2 F,2 B,2) || z2 | B,8 | B,6 D,2 | %8
 (E,D,C,F,) z (=B, C2) | z F,A,C A,2 (G,A, | B,4) B,4- | B,4 B,4- | %12
 [E,B,]2 z2 !fermata![F,A,]2 z2 | (B,_A,G,_G, F,2) z2 | [F,,F,]4 [_G,,_G,]4 | %15
 [F,,F,]4 [F,,F,]2 z2 | [=E,,=E,]4 [E,,E,]2 z2 | [F,,F,]4 (F,2 G,A, | B,4) B,4- | B,4 B,4- | %20
 B,2 z2 [F,A,]2"^col canto" z2 | [B,,B,]2 z2 G,,(G,=B,G,) | %22
 (=B,C) [E,,E,]2 [F,,F,]2"^ritardando" [F,,F,]2 | [B,,B,]2 z2 G,,(G,=B,G,) | %24
 (!>!=B,C)"^col canto" [E,,E,]2 [F,,F,]2 [F,,F,]2 | [B,,B,]2"^ritardando" z2 [F,A,]4 | %26
 B,2 F,4 F,2- | (F,_A,G,_G, !fermata!F,2) | z2 | B,8 | B,6 D,2 | (E,D,C,F,) z (=B, C2) | %32
 z F,A,C A,2 (G,A, | B,4) B,4- | B,4 B,4- | [E,B,]2 z2 !fermata![F,A,]2 z2 | (B,_A,G,_G, F,2) z2 | %37
 [F,,F,]4 [_G,,_G,]4 | [F,,F,]4 [F,,F,]2 z2 | [=E,,=E,]4 [E,,E,]2 z2 | [F,,F,]4 (F,2 G,A, | %41
 B,4) B,4- | B,4 B,4- | B,2 z2 [F,A,]2"^col canto" z2 | [B,,B,]2 z2 G,,(G,=B,G,) | %45
 (=B,C) [E,,E,]2 [F,,F,]2"^ritardando" [F,,F,]2 | [B,,B,]2 z2 G,,(G,=B,G,) | %47
 (!>!=B,C)"^col canto" [E,,E,]2 [F,,F,]2 [F,,F,]2 | [B,,B,]2"^ritardando" z2 [F,A,]4 | %49
 B,2 F,4 F,2- | (F,_A,G,_G, !fermata!F,2) |] %51
V:4
 x2 | BA x6 | x5"_cresc." [Ff][^F^f] z | x8 | x6 || x2 | x8 | x6 F2 | E3 F G[F_A] [EG]2 | x6 E2 | %10
 DB x6 | x6 E2 | x8 | x4 D2 x2 | x8 | x8 | x8 | x6 F2 | FB x6 | x6 F2 | x8 | x8 | x8 | D2 x6 | x8 | %25
 D2 (dF dFcE) | D2 z2 z4 | x6 | x2 | x8 | x6 F2 | E3 F G[F_A] [EG]2 | x6 E2 | DB x6 | x6 E2 | x8 | %36
 x4 D2 x2 | x8 | x8 | x8 | x6 F2 | FB x6 | x6 F2 | x8 | x8 | x8 | D2 x6 | x8 | D2 (dF dFcE) | %49
 D2 z2 z4 | x6 |] %51
V:5
 x2 | B,,4 B,,4- | B,,4 D,2 D,2 | E,4 F,4 | B,,6 || x2 | B,,4 B,,4- | B,,6 x2 | x4 E,4 | %9
 x4 A,F, F,2 | B,,8 | (B,,6 D,2) | x8 | B,,4 B,,2 x2 | x8 | x8 | x8 | x4 F,4 | B,,8 | (B,,6 D,2) | %20
 E,2 x6 | x8 | C,2 x6 | x8 | C,2 x6 | x8 | B,,4"^col canto" F,,4 | !fermata!B,,6 | x2 | %29
 B,,4 B,,4- | B,,6 x2 | x4 E,4 | x4 A,F, F,2 | B,,8 | (B,,6 D,2) | x8 | B,,4 B,,2 x2 | x8 | x8 | %39
 x8 | x4 F,4 | B,,8 | (B,,6 D,2) | E,2 x6 | x8 | C,2 x6 | x8 | C,2 x6 | x8 | %49
 B,,4"^col canto" F,,4 | !fermata!B,,6 |] %51

